; generated by Slic3r 1.3.0 on 2020-03-29 at 09:54:02

; external perimeters extrusion width = 0.44mm (4.25mm^3/s)
; perimeters extrusion width = 0.42mm (8.02mm^3/s)
; infill extrusion width = 0.42mm (9.36mm^3/s)
; solid infill extrusion width = 0.42mm (4.01mm^3/s)
; top infill extrusion width = 0.42mm (4.01mm^3/s)

M107
M190 S80 ; set bed temperature and wait for it to be reached
M104 S243 ; set temperature
G28 ; home all axes
G1 Z5 F5000 ; lift nozzle

; Filament gcode

M109 S243 ; set temperature and wait for it to be reached
G21 ; set units to millimeters
G90 ; use absolute coordinates
M82 ; use absolute distances for extrusion
G92 E0
G1 Z0.400 F10800.000
G1 E-2.00000 F2400.00000
G92 E0
G1 X114.323 Y54.942 F10800.000
G1 E2.00000 F2400.00000
G1 F1500
G1 X115.243 Y53.471 E2.20605
G1 X116.524 Y51.914 E2.44545
G1 X117.804 Y50.717 E2.65362
G1 X119.444 Y49.545 E2.89303
G1 X120.991 Y48.721 E3.10119
G1 X122.878 Y48.013 E3.34058
G1 X124.586 Y47.617 E3.54874
G1 X126.592 Y47.421 E3.78814
G1 X128.344 Y47.481 E3.99631
G1 X130.332 Y47.811 E4.23571
G1 X132.009 Y48.322 E4.44387
G1 X133.844 Y49.156 E4.68327
G1 X135.331 Y50.083 E4.89143
G1 X136.888 Y51.364 E5.13082
G1 X138.085 Y52.644 E5.33899
G1 X139.257 Y54.284 E5.57839
G1 X140.081 Y55.831 E5.78655
G1 X140.789 Y57.718 E6.02595
G1 X141.185 Y59.426 E6.23412
G1 X141.381 Y61.432 E6.47351
G1 X141.321 Y63.184 E6.68168
G1 X140.991 Y65.172 E6.92107
G1 X140.774 Y66.081 E7.03208
G1 X110.220 Y163.449 E19.15200
G1 X109.343 Y165.247 E19.38948
G1 X104.959 Y171.614 E20.30758
G1 X103.343 Y173.262 E20.58180
G1 X101.263 Y174.265 E20.85603
G1 X99.427 Y174.520 E21.07610
G1 X87.567 Y174.515 E22.48466
G1 X85.293 Y174.117 E22.75889
G1 X83.288 Y172.972 E23.03311
G1 X81.967 Y171.500 E23.26805
G1 X77.788 Y165.167 E24.16912
G1 X76.866 Y163.050 E24.44334
G1 X76.824 Y160.071 E24.79719
G1 X85.033 Y121.506 E29.48000
G1 X85.384 Y120.365 E29.62178
G1 X93.780 Y99.829 E32.25675
G1 X114.298 Y54.997 E38.11238
G1 E36.11238 F2400.00000
G92 E0
G1 X121.426 Y58.358 F10800.000
G1 E2.00000 F2400.00000
G1 F1500
G1 X122.512 Y57.038 E2.20295
G1 X123.902 Y56.045 E2.40590
G1 X125.502 Y55.444 E2.60886
G1 X127.203 Y55.279 E2.81181
G1 X128.888 Y55.559 E3.01476
G1 X130.444 Y56.266 E3.21771
G1 X131.764 Y57.352 E3.42066
G1 X132.758 Y58.742 E3.62361
G1 X133.358 Y60.342 E3.82656
G1 X133.523 Y62.043 E4.02952
G1 X133.243 Y63.728 E4.23247
G1 X132.536 Y65.284 E4.43542
G1 X131.450 Y66.604 E4.63837
G1 X130.060 Y67.598 E4.84132
G1 X128.460 Y68.198 E5.04428
G1 X126.759 Y68.363 E5.24723
G1 X125.074 Y68.083 E5.45018
G1 X123.518 Y67.376 E5.65313
G1 X122.198 Y66.290 E5.85608
G1 X121.204 Y64.900 E6.05903
G1 X120.604 Y63.300 E6.26199
G1 X120.439 Y61.599 E6.46494
G1 X120.719 Y59.914 E6.66789
G1 X121.401 Y58.413 E6.86371
G1 X121.426 Y58.358 F10800.000
G1 E4.86371 F2400.00000
G92 E0
G1 X121.187 Y65.829 F10800.000
G1 X121.544 Y66.920 F10800.000
G1 X122.733 Y68.912 F10800.000
G1 X123.281 Y70.320 F10800.000
G1 X106.984 Y100.555 F10800.000
G1 X110.588 Y102.260 F10800.000
G1 X109.531 Y102.877 F10800.000
G1 E2.00000 F2400.00000
G1 F1500
G1 X103.465 Y122.527 E4.44247
G1 X100.391 Y158.629 E8.74562
G1 X100.875 Y159.611 E8.87557
G1 X95.728 Y159.611 E9.48688
G1 X95.739 Y163.273 E9.92182
G1 X98.587 Y165.003 E10.31764
G1 X98.195 Y165.977 E10.44238
G1 X88.849 Y165.973 E11.55234
G1 X88.508 Y165.041 E11.67021
G1 X91.440 Y163.293 E12.07565
G1 X91.515 Y159.602 E12.51416
G1 X86.326 Y159.627 E13.13040
G1 X86.702 Y158.858 E13.23201
G1 X93.362 Y123.424 E17.51406
G1 X101.522 Y103.450 E20.07660
G1 X121.842 Y70.121 E24.71247
G1 X122.492 Y68.973 E24.86921
G1 X122.344 Y68.411 E24.93826
G1 X124.654 Y69.461 E25.23967
G1 X125.142 Y69.542 E25.29848
G1 X109.814 Y101.959 E29.55714
G1 X109.549 Y102.819 E29.66409
G1 X110.231 Y103.030 F10800.000
G1 F1500
G1 X104.170 Y122.664 E32.10455
G1 X101.120 Y158.492 E36.37497
G1 X102.023 Y160.325 E36.61766
G1 X96.444 Y160.325 E37.28022
G1 X96.452 Y162.870 E37.58253
G1 X99.476 Y164.707 E38.00281
G1 X98.677 Y166.691 E38.25685
G1 X88.350 Y166.687 E39.48339
G1 X87.634 Y164.731 E39.73080
G1 X90.734 Y162.883 E40.15946
G1 X90.786 Y160.319 E40.46396
G1 X85.180 Y160.346 E41.12978
G1 X86.018 Y158.631 E41.35648
G1 X92.674 Y123.220 E45.63568
G1 X100.883 Y103.127 E48.21360
G1 X121.226 Y69.759 E52.85490
G1 X121.728 Y68.874 E52.97569
G1 X121.391 Y67.606 E53.13153
G1 X121.336 Y66.506 E53.26237
G1 X123.137 Y67.987 E53.53935
G1 X124.864 Y68.772 E53.76463
G1 X126.866 Y69.105 E54.00569
G1 X126.259 Y70.125 E54.14668
G1 X126.093 Y70.252 E54.17150
G1 X125.529 Y70.395 E54.24061
G1 X110.482 Y102.218 E58.42127
G1 X110.249 Y102.973 E58.51505
G1 X110.931 Y103.183 F10800.000
G1 F1500
G1 X104.875 Y122.802 E60.95351
G1 X101.848 Y158.354 E65.19121
G1 X103.171 Y161.039 E65.54663
G1 X97.160 Y161.039 E66.26044
G1 X97.164 Y162.468 E66.43012
G1 X100.365 Y164.412 E66.87485
G1 X99.159 Y167.406 E67.25821
G1 X87.850 Y167.401 E68.60132
G1 X86.760 Y164.420 E68.97827
G1 X90.028 Y162.472 E69.43016
G1 X90.057 Y161.037 E69.60063
G1 X84.034 Y161.066 E70.31604
G1 X85.334 Y158.404 E70.66783
G1 X91.985 Y123.017 E74.94417
G1 X100.243 Y102.804 E77.53747
G1 X120.610 Y69.397 E82.18421
G1 X120.963 Y68.776 E82.26904
G1 X120.682 Y67.717 E82.39917
G1 X120.564 Y65.371 E82.67811
G1 X119.852 Y63.475 E82.91864
G1 X119.667 Y61.573 E83.14553
G1 X119.981 Y59.689 E83.37241
G1 X120.771 Y57.950 E83.59930
G1 X121.984 Y56.474 E83.82619
G1 X123.539 Y55.363 E84.05308
G1 X125.327 Y54.692 E84.27997
G1 X127.229 Y54.507 E84.50685
G1 X129.113 Y54.821 E84.73374
G1 X130.852 Y55.611 E84.96063
G1 X132.328 Y56.825 E85.18752
G1 X133.439 Y58.379 E85.41441
G1 X134.110 Y60.167 E85.64129
G1 X134.178 Y60.863 E85.72432
G1 X134.295 Y62.069 E85.86818
G1 X133.982 Y63.953 E86.09507
G1 X133.191 Y65.692 E86.32196
G1 X131.978 Y67.168 E86.54884
G1 X130.423 Y68.279 E86.77573
G1 X128.635 Y68.950 E87.00262
G1 X127.737 Y69.037 E87.10969
G1 X126.802 Y70.608 E87.32685
G1 X126.411 Y70.908 E87.38542
G1 X126.031 Y71.005 E87.43200
G1 X111.149 Y102.477 E91.56665
G1 X110.949 Y103.126 E91.64726
G1 X110.537 Y103.254 F10800.000
G1 E89.64726 F2400.00000
G92 E0
G1 X122.675 Y68.124 F10800.000
G1 E2.00000 F2400.00000
G1 F1500
G1 X122.303 Y67.892 E2.00387
G1 F1500
G1 X121.932 Y67.660 E2.01399
G1 F1500
G1 X121.746 Y67.544 E2.02217
G1 X121.717 Y66.303 F10800.000
G1 F1500
G1 X121.400 Y65.964 E2.02643
G1 F1500
G1 X121.084 Y65.625 E2.03763
G1 F1500
G1 X120.925 Y65.456 E2.04670
G1 X120.922 Y65.191 F10800.000
G1 F1500
G1 X121.284 Y66.000 E2.05126
G1 E0.05126 F2400.00000
G92 E0
G1 X127.067 Y68.734 F10800.000
G1 E2.00000 F2400.00000
G1 F1500
G1 X127.494 Y68.749 E2.00595
G1 E0.00595 F2400.00000
G92 E0
G1 X125.824 Y69.589 F10800.000
G1 X123.281 Y70.320 F10800.000
G1 X106.984 Y100.555 F10800.000
G1 X104.892 Y105.150 F10800.000
G1 X99.180 Y121.111 F10800.000
G1 X98.215 Y124.855 F10800.000
G1 X94.317 Y153.473 F10800.000
G1 X95.044 Y145.619 F10800.000
G1 E2.00000 F2400.00000
G1 F1500
G1 X95.717 Y145.710 E2.08129
G1 X95.026 Y153.831 E3.05700
G1 X93.499 Y153.839 E3.23977
G1 X95.033 Y145.678 E4.23387
G1 E2.23387 F2400.00000
G92 E0
G1 X95.687 Y154.548 F10800.000
G1 E2.00000 F2400.00000
G1 F1500
G1 X92.630 Y154.563 E2.36593
G1 X96.971 Y131.473 E5.17856
G1 X97.644 Y131.564 E5.25985
G1 X95.692 Y154.488 E8.01410
G1 X96.349 Y155.265 F10800.000
G1 F1500
G1 X91.762 Y155.287 E8.56320
G1 X97.521 Y124.650 E12.29509
G1 X98.563 Y122.098 E12.62507
G1 X99.160 Y122.242 E12.69851
G1 X96.354 Y155.205 E16.65891
G1 X97.007 Y156.017 F10800.000
G1 F1500
G1 X95.182 Y156.017 E16.87744
G1 X95.182 Y155.990 E16.88063
G1 X90.893 Y156.011 E17.39407
G1 X96.827 Y124.445 E21.23909
G1 X103.253 Y108.716 E23.27326
G1 X103.896 Y108.946 E23.35505
G1 X99.917 Y121.837 E24.97016
G1 X97.012 Y155.957 E29.06962
G1 X97.668 Y156.737 F10800.000
G1 F1500
G1 X94.447 Y156.737 E29.45525
G1 X94.448 Y156.714 E29.45801
G1 X90.025 Y156.735 E29.98749
G1 X96.133 Y124.241 E33.94563
G1 X104.096 Y104.749 E36.46625
G1 X106.516 Y100.780 E37.02278
G1 X107.091 Y101.039 E37.09827
G1 X100.627 Y121.975 E39.72132
G1 X97.673 Y156.677 E43.89066
G1 X98.329 Y157.457 F10800.000
G1 F1500
G1 X93.713 Y157.457 E44.44337
G1 X93.713 Y157.437 E44.44571
G1 X89.156 Y157.459 E44.99122
G1 X95.439 Y124.036 E49.06250
G1 X103.451 Y104.424 E51.59875
G1 X112.661 Y89.317 E53.71685
G1 X113.258 Y89.638 E53.79794
G1 X107.802 Y101.177 E55.32590
G1 X101.338 Y122.113 E57.94900
G1 X98.335 Y157.397 E62.18821
G1 X98.991 Y158.177 F10800.000
G1 F1500
G1 X94.289 Y158.177 E62.75103
G1 X94.308 Y164.542 E63.51301
G1 X92.849 Y164.541 E63.68768
G1 X92.978 Y158.161 E64.45166
G1 X88.288 Y158.183 E65.01321
G1 X94.745 Y123.831 E69.19762
G1 X102.807 Y104.098 E71.74949
G1 X119.123 Y77.335 E75.50191
G1 X119.719 Y77.657 E75.58300
G1 X108.474 Y101.438 E78.73224
G1 X102.049 Y122.252 E81.33993
G1 X98.996 Y158.117 E85.64901
G1 X99.663 Y158.766 F10800.000
G1 F1500
G1 X99.727 Y158.896 E85.66638
G1 X95.011 Y158.896 E86.23091
G1 X95.026 Y163.675 E86.80300
G1 X97.639 Y165.263 E87.16910
G1 X89.537 Y165.259 E88.13912
G1 X92.146 Y163.704 E88.50284
G1 X92.244 Y158.884 E89.07994
G1 X87.419 Y158.907 E89.65752
G1 X94.051 Y123.627 E93.95506
G1 X102.162 Y103.773 E96.52257
G1 X122.457 Y70.483 E101.19000
G1 X123.014 Y69.500 E101.32524
G1 X124.132 Y70.008 E101.47221
G1 X109.147 Y101.700 E105.66885
G1 X102.759 Y122.390 E108.26112
G1 X99.668 Y158.706 E112.62444
M104 S242 ; set temperature
M140 S79 ; set bed temperature
G1 Z0.800 F10800.000
G1 E110.62444 F2400.00000
G92 E0
G1 X100.011 Y159.073 F10800.000
G1 X99.092 Y158.287 F10800.000
G1 X96.558 Y155.528 F10800.000
G1 X94.307 Y153.465 F10800.000
G1 X97.950 Y126.403 F10800.000
G1 X98.712 Y122.791 F10800.000
G1 X104.978 Y105.195 F10800.000
G1 X106.094 Y102.731 F10800.000
G1 X119.098 Y78.213 F10800.000
G1 X123.209 Y70.286 F10800.000
G1 X124.473 Y67.332 F10800.000
G1 X125.119 Y67.935 F10800.000
G1 E2.00000 F2400.00000
G1 F900
G1 X123.600 Y67.245 E2.09272
G1 X122.311 Y66.185 E2.18543
G1 X121.341 Y64.827 E2.27815
G1 X120.755 Y63.265 E2.37087
G1 X120.593 Y61.605 E2.46358
G1 X120.867 Y59.959 E2.55630
G1 X121.557 Y58.440 E2.64902
G1 X122.617 Y57.151 E2.74173
G1 X123.975 Y56.181 E2.83445
G1 X125.537 Y55.595 E2.92716
G1 X127.197 Y55.434 E3.01988
G1 X128.843 Y55.707 E3.11260
G1 X130.362 Y56.397 E3.20532
G1 X131.651 Y57.457 E3.29803
G1 X132.621 Y58.815 E3.39075
G1 X133.207 Y60.377 E3.48346
G1 X133.369 Y62.037 E3.57618
G1 X133.095 Y63.683 E3.66890
G1 X132.405 Y65.202 E3.76161
G1 X131.345 Y66.491 E3.85433
G1 X129.987 Y67.461 E3.94705
G1 X128.425 Y68.047 E4.03976
G1 X126.765 Y68.209 E4.13248
G1 X125.178 Y67.945 E4.22186
G1 X125.233 Y67.615 F10800.000
G1 F900
G1 X123.778 Y66.959 E4.31055
G1 X122.558 Y65.955 E4.39838
G1 X121.639 Y64.669 E4.48620
G1 X121.083 Y63.189 E4.57403
G1 X120.930 Y61.616 E4.66186
G1 X121.190 Y60.057 E4.74969
G1 X121.843 Y58.618 E4.83751
G1 X122.847 Y57.398 E4.92534
G1 X124.133 Y56.479 E5.01317
G1 X125.613 Y55.924 E5.10099
G1 X127.186 Y55.770 E5.18882
G1 X128.745 Y56.030 E5.27665
G1 X130.184 Y56.683 E5.36448
G1 X131.404 Y57.687 E5.45230
G1 X132.324 Y58.973 E5.54013
G1 X132.879 Y60.453 E5.62796
G1 X133.032 Y62.026 E5.71578
G1 X132.773 Y63.585 E5.80361
G1 X132.119 Y65.024 E5.89144
G1 X131.115 Y66.244 E5.97927
G1 X129.829 Y67.164 E6.06709
G1 X128.349 Y67.719 E6.15492
G1 X126.776 Y67.872 E6.24275
G1 X125.292 Y67.625 E6.32635
G1 X125.348 Y67.285 F10800.000

G1 F3600
G1 X123.962 Y66.664 E6.40574
G1 X122.811 Y65.718 E6.48357
G1 X121.945 Y64.506 E6.56141
G1 X121.422 Y63.111 E6.63924
G1 X121.277 Y61.628 E6.71708
G1 X121.522 Y60.158 E6.79492
G1 X122.138 Y58.802 E6.87275
G1 X123.084 Y57.651 E6.95059
G1 X124.296 Y56.785 E7.02843
G1 X125.691 Y56.262 E7.10626
G1 X127.174 Y56.117 E7.18410
G1 X128.644 Y56.362 E7.26193
G1 X130.000 Y56.978 E7.33977
G1 X131.151 Y57.924 E7.41761
G1 X132.017 Y59.136 E7.49544
G1 X132.540 Y60.531 E7.57328
G1 X132.685 Y62.014 E7.65111
G1 X132.440 Y63.484 E7.72895
G1 X131.824 Y64.840 E7.80679
G1 X130.878 Y65.991 E7.88462
G1 X129.666 Y66.857 E7.96246
G1 X128.271 Y67.380 E8.04030
G1 X126.788 Y67.525 E8.11813
G1 X125.408 Y67.295 E8.19123

G1 E6.19123 F2400.00000
G92 E0
G1 X124.438 Y69.466 F10800.000
G1 X123.564 Y69.720 F10800.000
G1 X106.713 Y101.144 F10800.000
G1 X104.878 Y105.224 F10800.000
G1 X99.165 Y121.175 F10800.000
G1 X104.266 Y122.751 F10800.000
G1 X106.857 Y114.711 F10800.000
G1 E2.00000 F2400.00000
G1 F3600
G1 X104.367 Y122.770 E2.46876
G1 X101.472 Y156.721 E4.36228
G1 X101.342 Y158.454 E4.45888
G1 X102.370 Y160.541 E4.58810
G1 X96.660 Y160.541 E4.90537
G1 X96.667 Y162.748 E5.02806
G1 X99.745 Y164.618 E5.22817
G1 X98.823 Y166.907 E5.36533
G1 X88.199 Y166.903 E5.95572
G1 X87.370 Y164.637 E6.08980
G1 X90.521 Y162.758 E6.29366
G1 X90.566 Y160.536 E6.41717
G1 X84.833 Y160.563 E6.73572
G1 X85.811 Y158.563 E6.85946
G1 X92.450 Y123.223 E8.85767
G1 X100.675 Y103.106 E10.06541
G1 X120.177 Y71.118 E12.14730
G1 X121.427 Y68.912 E12.28821
G1 X120.492 Y65.384 E12.49106
G1 X120.356 Y65.254 E12.50153
G1 X119.701 Y63.510 E12.60505
G1 X119.512 Y61.568 E12.71346
G1 X119.832 Y59.644 E12.82187
G1 X120.640 Y57.868 E12.93027
G1 X121.879 Y56.361 E13.03868
G1 X123.466 Y55.227 E13.14709
G1 X125.292 Y54.542 E13.25550
G1 X127.234 Y54.352 E13.36391
G1 X129.158 Y54.672 E13.47231
G1 X130.934 Y55.480 E13.58072
G1 X132.441 Y56.719 E13.68913
G1 X133.575 Y58.306 E13.79754
G1 X134.261 Y60.132 E13.90595
G1 X134.450 Y62.074 E14.01435
G1 X134.130 Y63.998 E14.12276
G1 X133.323 Y65.774 E14.23117
G1 X132.083 Y67.281 E14.33958
G1 X130.496 Y68.415 E14.44799
G1 X128.434 Y69.189 E14.57038
G1 X126.959 Y70.320 E14.67365
G1 X125.631 Y70.656 E14.74977
G1 X113.499 Y96.294 E16.32596
G1 X110.668 Y102.376 E16.69876
G1 X106.875 Y114.654 E17.41286
G1 X107.194 Y114.752 F10800.000
G1 F3600
G1 X104.697 Y122.834 E17.88295
G1 X101.805 Y156.748 E19.77438
G1 X101.682 Y158.389 E19.86581
G1 X102.907 Y160.875 E20.01982
G1 X96.996 Y160.875 E20.34831
G1 X97.001 Y162.560 E20.44197
G1 X100.161 Y164.479 E20.64743
G1 X99.048 Y167.242 E20.81290
G1 X87.965 Y167.237 E21.42881
G1 X86.961 Y164.492 E21.59125
G1 X90.190 Y162.566 E21.80019
G1 X90.225 Y160.872 E21.89437
G1 X84.297 Y160.900 E22.22377
G1 X85.491 Y158.456 E22.37489
G1 X92.128 Y123.128 E24.37248
G1 X100.376 Y102.955 E25.58359
G1 X119.889 Y70.949 E27.66667
G1 X121.069 Y68.866 E27.79970
G1 X120.193 Y65.561 E27.98973
G1 X120.070 Y65.443 E27.99921
G1 X119.373 Y63.586 E28.10944
G1 X119.176 Y61.557 E28.22274
G1 X119.510 Y59.546 E28.33604
G1 X120.354 Y57.689 E28.44933
G1 X121.649 Y56.115 E28.56263
G1 X123.307 Y54.929 E28.67593
G1 X125.216 Y54.213 E28.78922
G1 X127.245 Y54.016 E28.90252
G1 X129.257 Y54.350 E29.01582
G1 X131.113 Y55.194 E29.12912
G1 X132.687 Y56.489 E29.24241
G1 X133.873 Y58.147 E29.35571
G1 X134.589 Y60.056 E29.46901
G1 X134.786 Y62.085 E29.58231
G1 X134.452 Y64.097 E29.69560
G1 X133.609 Y65.953 E29.80890
G1 X132.313 Y67.527 E29.92220
G1 X130.655 Y68.713 E30.03550
G1 X128.598 Y69.484 E30.15758
G1 X128.491 Y69.567 E30.16509

G1 F3600
G1 X127.810 Y70.088 E30.20987

G1 F3600
G1 X127.108 Y70.627 E30.25906
G1 X125.866 Y70.941 E30.33025
G1 X113.801 Y96.436 E31.89763
G1 X110.981 Y102.496 E32.26910
G1 X107.212 Y114.695 E32.97860
G1 X107.540 Y114.796 F10800.000
G1 F1800
G1 X105.036 Y122.901 E33.47818
G1 X102.148 Y156.775 E35.48053
G1 X102.032 Y158.321 E35.57180
G1 X103.460 Y161.219 E35.76208
G1 X97.341 Y161.219 E36.12247
G1 X97.344 Y162.366 E36.19005
G1 X100.589 Y164.337 E36.41365
G1 X99.281 Y167.586 E36.61992
G1 X87.725 Y167.581 E37.30056
G1 X86.540 Y164.342 E37.50368
G1 X89.850 Y162.369 E37.73068
G1 X89.874 Y161.218 E37.79846
G1 X83.745 Y161.247 E38.15944
G1 X85.161 Y158.347 E38.34949
G1 X91.797 Y123.030 E40.46595
G1 X100.068 Y102.799 E41.75323
G1 X119.592 Y70.775 E43.96228
G1 X120.701 Y68.819 E44.09468
G1 X120.004 Y66.190 E44.25482

G1 F3600
G1 X119.886 Y65.743 E44.27901
G1 X119.775 Y65.638 E44.28696
G1 X119.035 Y63.664 E44.39709
G1 X118.829 Y61.545 E44.50834
G1 X119.178 Y59.444 E44.61959
G1 X120.059 Y57.506 E44.73084
G1 X121.412 Y55.861 E44.84209
G1 X123.144 Y54.623 E44.95334
G1 X125.138 Y53.875 E45.06459
G1 X127.257 Y53.669 E45.17584
G1 X129.358 Y54.018 E45.28709
G1 X131.296 Y54.899 E45.39835
G1 X132.941 Y56.252 E45.50960
